X: 35981
T: Saratoga, The
R: hornpipe
M: 4/4
K: Fmajor
c>=Bc>A d>_Bf>d|c>AF>A c>Ad>c|B>A (3GAB A>G (3FGA|G>c=B>d c2 (3GA_B|
c>=Bc>A d2 (3fed|c>AF>A c2 (3def|d>ef>g e>fg>a|f2 a2 f2:|
a>Ag>A f>Ae>A|f>Ae>A d>Af>A|e>A^c>e a>gf>e|f>ge>f d>ef>g|
a>Ag>A f>A e2|f>Ae>A d>A f2|e2 (3fga b>g (3efg|f2 a2 f2:|
c=BcA d_Bfd|cAFA cAdc|BAGB AGFA|Gc=Bd c2 A_B|
c=BcA d_Bfd|cAFA cdef|defg efga|f2 a2 f2:|
aAgA fAeA|fAeA dAfA|eA^ce agfe|fgef defg|
aAgA fA e2|fAeA dA f2|efga bgeg|f2 a2 f2:|

